dist/assets/img/main/arrow.svg

<svg width="50" height="50" viewBox="0 0 50 50" fill="none" xmlns="http://www.w3.org/2000/svg">
<g clip-path="url(#clip0)">
<path d="M24.2742 49.6937C24.6805 50.1011 25.34 50.1018 25.7474 49.6956C25.7479 49.695 25.7486 49.6943 25.7492 49.6937L44.4992 30.9437C44.8989 30.53 44.8874 29.8705 44.4736 29.4708C44.0699 29.081 43.43 29.081 43.0264 29.4708L26.0534 46.4437L26.0534 1.0417C26.0534 0.466406 25.587 2.13578e-06 25.0117 2.08548e-06C24.4364 2.03519e-06 23.97 0.466406 23.97 1.0417L23.97 46.4437L6.99921 29.4729C6.5995 29.0592 5.94013 29.0476 5.52626 29.4474C5.11249 29.8471 5.10106 30.5064 5.50067 30.9203C5.50907 30.929 5.51756 30.9375 5.52626 30.9459L24.2742 49.6937Z" fill="#4CAF50"/>
<path d="M6.26169 29.1667C6.53815 29.1662 6.80348 29.2756 6.99919 29.4709L25.0117 47.4854L43.0242 29.4708C43.438 29.0711 44.0974 29.0826 44.4971 29.4964C44.887 29.9001 44.887 30.54 44.4971 30.9436L25.7471 49.6936C25.3404 50.1003 24.681 50.1003 24.2742 49.6936L5.52419 30.9436C5.11804 30.5362 5.11901 29.8766 5.52653 29.4705C5.72175 29.276 5.9861 29.1667 6.26169 29.1667Z" fill="black"/>
<path d="M25.0117 -9.10689e-08C25.587 -4.07749e-08 26.0534 0.466404 26.0534 1.0417L26.0534 48.9583C26.0534 49.5336 25.587 50 25.0117 50C24.4364 50 23.97 49.5336 23.97 48.9583L23.97 1.0416C23.9701 0.466404 24.4364 -1.41363e-07 25.0117 -9.10689e-08Z" fill="black"/>
</g>
<defs>
<clipPath id="clip0">
<rect width="50" height="50" fill="white" transform="translate(50 50) rotate(-180)"/>
</clipPath>
</defs>
</svg>

<svg width="50" height="50" fill="none" xmlns="http://www.w3.org/2000/svg"><g clip-path="url(#clip0)"><path d="M24.274 49.694a1.042 1.042 0 001.475 0l18.75-18.75a1.042 1.042 0 00-1.473-1.473L26.053 46.444V1.042a1.042 1.042 0 00-2.083 0v45.402L7 29.473a1.042 1.042 0 10-1.474 1.473l18.748 18.748z" fill="#4CAF50"/><path d="M6.262 29.167c.276 0 .541.109.737.304l18.013 18.014 18.012-18.014a1.042 1.042 0 011.473 1.473l-18.75 18.75a1.042 1.042 0 01-1.473 0l-18.75-18.75a1.042 1.042 0 01.738-1.777z" fill="#000"/><path d="M25.012 0c.575 0 1.041.466 1.041 1.042v47.916a1.042 1.042 0 01-2.083 0V1.042C23.97.466 24.436 0 25.012 0z" fill="#000"/></g><defs><clipPath id="clip0"><path fill="#fff" transform="rotate(-180 25 25)" d="M0 0h50v50H0z"/></clipPath></defs></svg>
